**harm	**harte	**timestamp	**phrase	**leadinstrument	**kern
*M4/4	*M4/4	*	*	*	*
*G-:	*G-:	*	*	*	*G-:
1r;	N	0	.	r	1r;
=1	=1	=1	=1	=1	=1
*>A_intro	*>A_intro	*>A_intro	*>A_intro	*>A_intro	*>A_intro
2I	G-:maj	0.418	newline	piano	2G- 2b- 2dd-
2II7	A-:7	1.82	.	piano	2A- 2cc 2ee- 2gg-
=2	=2	=2	=2	=2	=2
1V	D-:maj	3.221	.	piano	1D- 1f 1a-
=3	=3	=3	=3	=3	=3
1I	G-:maj	6.025	.	piano	1G- 1b- 1dd-
=4	=4	=4	=4	=4	=4
1II7	A-:7	8.828	.	piano	1A- 1cc 1ee- 1gg-
=5	=5	=5	=5	=5	=5
*>B_verse	*>B_verse	*>B_verse	*>B_verse	*>B_verse	*>B_verse
1V	D-:maj	11.632	newline	voice	1D- 1f 1a-
=6	=6	=6	=6	=6	=6
2I	G-:maj	14.471	.	voice	2G- 2b- 2dd-
2II7	A-:7	15.891	.	voice	2A- 2cc 2ee- 2gg-
=7	=7	=7	=7	=7	=7
1V	D-:maj	17.311	.	voice	1D- 1f 1a-
=8	=8	=8	=8	=8	=8
1V	D-:maj	20.15	.	voice	1D- 1f 1a-
=9	=9	=9	=9	=9	=9
1V	D-:maj	22.99	newline	voice	1D- 1f 1a-
=10	=10	=10	=10	=10	=10
1I	G-:maj	25.798	.	voice	1G- 1b- 1dd-
=11	=11	=11	=11	=11	=11
2II7	A-:7	28.606	.	voice	2A- 2cc 2ee- 2gg-
2VI7	E-:7	30.01	.	voice	2E- 2g 2b- 2dd-
=12	=12	=12	=12	=12	=12
1II7	A-:7	31.414	.	voice	1A- 1cc 1ee- 1gg-
=13	=13	=13	=13	=13	=13
1V	D-:maj	34.223	newline	voice	1D- 1f 1a-
=14	=14	=14	=14	=14	=14
2I	G-:maj	37.053	.	voice	2G- 2b- 2dd-
2II7	A-:7	38.468	.	voice	2A- 2cc 2ee- 2gg-
=15	=15	=15	=15	=15	=15
1V	D-:maj	39.883	.	voice	1D- 1f 1a-
=16	=16	=16	=16	=16	=16
1V	D-:maj	42.713	.	voice	1D- 1f 1a-
=17	=17	=17	=17	=17	=17
2V	D-:maj	45.544	newline	voice	2D- 2f 2a-
2vi7	E-:min7	46.961	.	voice	2E- 2g- 2b- 2dd-
=18	=18	=18	=18	=18	=18
2I	G-:maj	48.378	.	voice	2G- 2b- 2dd-
2II7	A-:7	49.795	.	voice	2A- 2cc 2ee- 2gg-
=19	=19	=19	=19	=19	=19
1V	D-:maj	51.212	.	voice	1D- 1f 1a-
=20	=20	=20	=20	=20	=20
1V	D-:maj	54.046	.	voice	1D- 1f 1a-
=21	=21	=21	=21	=21	=21
*>C_chorus	*>C_chorus	*>C_chorus	*>C_chorus	*>C_chorus	*>C_chorus
2I	G-:maj	56.88	newline	voice	2G- 2b- 2dd-
2II7	A-:7	58.282	.	voice	2A- 2cc 2ee- 2gg-
=22	=22	=22	=22	=22	=22
1V	D-:maj	59.684	.	voice	1D- 1f 1a-
=23	=23	=23	=23	=23	=23
2I	G-:maj	62.487	.	voice	2G- 2b- 2dd-
2II7	A-:7	63.888	.	voice	2A- 2cc 2ee- 2gg-
=24	=24	=24	=24	=24	=24
1V	D-:maj	65.29	.	voice	1D- 1f 1a-
=25	=25	=25	=25	=25	=25
2I	G-:maj	68.093	newline	voice	2G- 2b- 2dd-
2vii7	F:min7	69.497	.	voice	2F 2a- 2cc 2ee-
=26	=26	=26	=26	=26	=26
1vi7	E-:min7	70.901	.	voice	1E- 1g- 1b- 1dd-
=27	=27	=27	=27	=27	=27
4vi7	E-:min7	73.709	.	voice	4E- 4g- 4b- 4dd-
4vii7	F:min7	74.411	.	voice	4F 4a- 4cc 4ee-
4I	G-:maj	75.114	.	voice	4G- 4b- 4dd-
4ii	A-:sus4(b7)	75.816	.	voice	4A- 4cc- 4ee-
=28	=28	=28	=28	=28	=28
4vi7	E-:min7	76.518	.	voice	4E- 4g- 4b- 4dd-
4vii7	F:min7	77.22	.	voice	4F 4a- 4cc 4ee-
4I	G-:maj	77.922	.	voice	4G- 4b- 4dd-
4ii	A-:sus4(b7)	78.624	.	voice	4A- 4cc- 4ee-
=29	=29	=29	=29	=29	=29
1V	D-:maj	79.326	newline	voice	1D- 1f 1a-
=30	=30	=30	=30	=30	=30
*>A_interlude	*>A_interlude	*>A_interlude	*>A_interlude	*>A_interlude	*>A_interlude
*G:	*G:	*	*	*	*G:
2I	G:maj	82.206	newline	piano	2G 2b 2dd
2II7	A:7	83.618	.	piano	2A 2cc# 2ee 2gg
=31	=31	=31	=31	=31	=31
1V	D:maj	85.031	.	piano	1D 1f# 1a
=32	=32	=32	=32	=32	=32
1I	G:maj	87.855	.	piano	1G 1b 1dd
=33	=33	=33	=33	=33	=33
1II7	A:7	90.68	.	piano	1A 1cc# 1ee 1gg
=34	=34	=34	=34	=34	=34
*>B_verse	*>B_verse	*>B_verse	*>B_verse	*>B_verse	*>B_verse
1V	D:maj	93.504	newline	voice	1D 1f# 1a
=35	=35	=35	=35	=35	=35
2I	G:maj	96.349	.	voice	2G 2b 2dd
2II7	A:7	97.771	.	voice	2A 2cc# 2ee 2gg
=36	=36	=36	=36	=36	=36
1V	D:maj	99.193	.	voice	1D 1f# 1a
=37	=37	=37	=37	=37	=37
1V	D:maj	102.038	.	voice	1D 1f# 1a
=38	=38	=38	=38	=38	=38
1V	D:maj	104.882	newline	voice	1D 1f# 1a
=39	=39	=39	=39	=39	=39
1I	G:maj	107.697	.	voice	1G 1b 1dd
=40	=40	=40	=40	=40	=40
2II7	A:7	110.512	.	voice	2A 2cc# 2ee 2gg
2VI7	E:7	111.919	.	voice	2E 2g# 2b 2dd
=41	=41	=41	=41	=41	=41
1II7	A:7	113.326	.	voice	1A 1cc# 1ee 1gg
=42	=42	=42	=42	=42	=42
1V	D:maj	116.141	newline	voice	1D 1f# 1a
=43	=43	=43	=43	=43	=43
2I	G:maj	118.981	.	voice	2G 2b 2dd
2II7	A:7	120.402	.	voice	2A 2cc# 2ee 2gg
=44	=44	=44	=44	=44	=44
1V	D:maj	121.822	.	voice	1D 1f# 1a
=45	=45	=45	=45	=45	=45
1V	D:maj	124.662	.	voice	1D 1f# 1a
=46	=46	=46	=46	=46	=46
2V	D:maj	127.503	newline	voice	2D 2f# 2a
2vi7	E:min7	128.905	.	voice	2E 2g 2b 2dd
=47	=47	=47	=47	=47	=47
2I	G:maj	130.308	.	voice	2G 2b 2dd
2II7	A:7	131.711	.	voice	2A 2cc# 2ee 2gg
=48	=48	=48	=48	=48	=48
1V	D:maj	133.114	.	voice	1D 1f# 1a
=49	=49	=49	=49	=49	=49
1V	D:maj	135.92	.	voice	1D 1f# 1a
=50	=50	=50	=50	=50	=50
*>C_chorus	*>C_chorus	*>C_chorus	*>C_chorus	*>C_chorus	*>C_chorus
2I	G:maj	138.725	newline	voice	2G 2b 2dd
2II7	A:7	140.111	.	voice	2A 2cc# 2ee 2gg
=51	=51	=51	=51	=51	=51
1V	D:maj	141.496	.	voice	1D 1f# 1a
=52	=52	=52	=52	=52	=52
2I	G:maj	144.267	.	voice	2G 2b 2dd
2II7	A:7	145.653	.	voice	2A 2cc# 2ee 2gg
=53	=53	=53	=53	=53	=53
1V	D:maj	147.038	.	voice	1D 1f# 1a
=54	=54	=54	=54	=54	=54
2I	G:maj	149.809	newline	voice	2G 2b 2dd
2vii7	F#:min7	151.206	.	voice	2F# 2a 2cc# 2ee
=55	=55	=55	=55	=55	=55
1vi7	E:min7	152.602	.	voice	1E 1g 1b 1dd
=56	=56	=56	=56	=56	=56
4vi7	E:min7	155.395	.	voice	4E 4g 4b 4dd
4vii7	F#:min7	156.093	.	voice	4F# 4a 4cc# 4ee
4I	G:maj	156.792	.	voice	4G 4b 4dd
4ii	A:sus4(b7)	157.49	.	voice	4A 4cc 4ee
=57	=57	=57	=57	=57	=57
4vi7	E:min7	158.188	.	voice	4E 4g 4b 4dd
4vii7	F#:min7	158.887	.	voice	4F# 4a 4cc# 4ee
4I	G:maj	159.585	.	voice	4G 4b 4dd
4ii	A:sus4(b7)	160.283	.	voice	4A 4cc 4ee
=58	=58	=58	=58	=58	=58
2V	D:maj	160.981	newline	piano	2D 2f# 2a
2Vb	D:maj/3	162.393	.	piano	2d 2F# 2a
=59	=59	=59	=59	=59	=59
2I	G:maj	163.804	.	piano	2G 2b 2dd
2ii	A:sus4(b7,9)	165.216	.	piano	2A 2cc 2ee
=60	=60	=60	=60	=60	=60
1V	D:maj	166.628	.	piano	1D 1f# 1a
1r;	N	173.685	.	r	1r;
1r;	N	175.543	.	r	1r;
*-	*-	*-	*-	*-	*-
!!!OTL: Behind Closed Doors
!!!COC: Charlie Rich
!!!BillboardChartDate: 1973/06/30
!!!BillboardPeak: 15
!!!BillboardWeeksOnChart: 19
!!!SampleTargetRank: 20
!!!SampleActualRank: 20
!!!SampleID#: 1218
!!!RDF**harmony: **recip + pitch class of root + harmonic quality
!!!RDF**harte: Chris Harte's syntax, used by MIREX
!!!RDF**phrase: newline = linebreak in original McGill transcription
!!!RDF**timestamp: McGill audio timestamp in seconds
!!!RDF**leadinstrument: original McGill primary instrumentation annotation
!!!RDT: 2017/01/12/
!!!ENC: Nathaniel Condit-Schultz
!!!EST: Awating manual error checking and editing.
